X: 126
T:Brid Harpur's
R:jig
D:Kevin Griffin
Z:added by Alf 
M:6/8
L:1/8
Q:3/8=120
K:G 
|:B3 GBd|gba ged|e/f/ge dBG|AGA BGE|
GED GBd|gba ged|e/f/ge dBd|egf g2d:|
gba ged|e/2f/2ge dBG|gba ged|eaa a2d|
gba ged|e/2f/2ge dBG|B3 dBA|GBA G2d:|
